X: 24316
T: Lough Isle Castle
R: reel
M: 4/4
K: Amixolydian
e2Ag eABd|e2Ag dGBd|e2Ag eAcA|~B2gd BGBd:|
cA~A2 cABe|cA~A2 BGBd|cA~A2 cABA|G2gd BGBd|
cA~A2 cABa|cA~A2 dGBg|afge fded|~B2gd BG~g2||
fedg eAAg|edeg dGBa|gedg eAAd|~B2gd BGBa|
gedg eAAg|edeg dGBa|gedg eAAd|~B2gd BGBd||

